actions/22x22-dark/journal-new.svg

<svg viewBox="0 0 22 22" xmlns="http://www.w3.org/2000/svg"><path d="m16.585938 3.0097656-5.980469.5605469h-6.1718752c-.7627233-.056531-1.0722657.0140166-1.0722657.7050781v13.2851564c-.047907.758357.2680882.742187 1.0097657.742187h6.3007812l5.964844.697266c.4604 0 .614576-.157604.664062-.457031h.541016c.122713 0 .225624.00512.332031-.011719.106408-.014433.234466-.056147.324219-.158203.089753-.102057.120722-.226169.134765-.355469.01373-.126413.011617-.273002.003907-.460937v-.011719-13.2753908c0-.3503719.02628-.5704614-.134766-.78125-.080522-.1053641-.21563-.161468-.330078-.1757812-.105814-.0132307-.209764-.0058706-.330078.0097656h-.525391c-.068362-.2559567-.241119-.3498929-.730468-.3125zm1.529296.7753906c.00609.0050795.027322.0153664 0 .0117188-.009906-.0080972.033204.1420911.033204.4746094v13.2890626.005859c.007818.184929.006839.319443-.001954.400391-.008792.080947-.025572.097244-.015625.085937.009947-.011426.026988-.010069-.021484-.005859-.048472.006615-.142231.005859-.267578.005859h-.521485c-.002652-.053719-.000311-.093664-.003906-.152343l.050782-14.0527348c-.000001-.0157117-.001903-.0238522-.001954-.0390624h.490235.011719c.121685-.0132307.209349-.0159286.246093-.0117188h.001953c.000244.000199-.000311-.0121226 0-.0117188zm-8.3144528 3.7148438h1.3984378v2.800781h2.800781v1.398438h-2.800781v2.800781h-1.3984378v-2.800781h-2.8007812v-1.398438h2.8007812z" fill="#f2f2f2"/></svg>

<svg xmlns="http://www.w3.org/2000/svg" viewBox="0 0 22 22">
  <defs id="defs3051">
    <style type="text/css" id="current-color-scheme">
      .ColorScheme-Text {
        color:#f2f2f2
      }
      </style>
  </defs>
 <path 
     style="fill:currentColor;fill-opacity:1;stroke:none"      
	 class="ColorScheme-Text"
        d="M 16.585938 3.0097656 L 10.605469 3.5703125 L 4.4335938 3.5703125 C 3.6708705 3.5137815 3.3613281 3.5843291 3.3613281 4.2753906 L 3.3613281 17.560547 C 3.3134211 18.318904 3.6294163 18.302734 4.3710938 18.302734 L 10.671875 18.302734 L 16.636719 19 C 17.097119 19 17.251295 18.842396 17.300781 18.542969 L 17.841797 18.542969 C 17.96451 18.542969 18.067421 18.548089 18.173828 18.53125 C 18.280236 18.516817 18.408294 18.475103 18.498047 18.373047 C 18.5878 18.27099 18.618769 18.146878 18.632812 18.017578 C 18.646542 17.891165 18.644429 17.744576 18.636719 17.556641 L 18.636719 17.544922 L 18.636719 4.2695312 C 18.636719 3.9191593 18.662999 3.6990698 18.501953 3.4882812 C 18.421431 3.3829171 18.286323 3.3268132 18.171875 3.3125 C 18.066061 3.2992693 17.962111 3.3066294 17.841797 3.3222656 L 17.316406 3.3222656 C 17.248044 3.0663089 17.075287 2.9723727 16.585938 3.0097656 z M 18.115234 3.7851562 C 18.121324 3.7902357 18.142556 3.8005226 18.115234 3.796875 C 18.105328 3.7887778 18.148438 3.9389661 18.148438 4.2714844 L 18.148438 17.560547 L 18.148438 17.566406 C 18.156256 17.751335 18.155277 17.885849 18.146484 17.966797 C 18.137692 18.047744 18.120912 18.064041 18.130859 18.052734 C 18.140806 18.041308 18.157847 18.042665 18.109375 18.046875 C 18.060903 18.05349 17.967144 18.052734 17.841797 18.052734 L 17.320312 18.052734 C 17.31766 17.999015 17.320001 17.95907 17.316406 17.900391 L 17.367188 3.8476562 C 17.367187 3.8319445 17.365285 3.823804 17.365234 3.8085938 L 17.855469 3.8085938 L 17.867188 3.8085938 C 17.988873 3.7953631 18.076537 3.7926652 18.113281 3.796875 C 18.113281 3.796875 18.115234 3.796875 18.115234 3.796875 C 18.115478 3.797074 18.114923 3.7847524 18.115234 3.7851562 z M 9.8007812 7.5 L 11.199219 7.5 L 11.199219 10.300781 L 14 10.300781 L 14 11.699219 L 11.199219 11.699219 L 11.199219 14.5 L 9.8007812 14.5 L 9.8007812 11.699219 L 7 11.699219 L 7 10.300781 L 9.8007812 10.300781 L 9.8007812 7.5 z "
     />
</svg>
